X: 47
T: No_139_Lullaby_(a).krn
N: Derived from No_139_Lullaby_(a).krn
%%abc-version 2.0
%%abcx-abcm2ps-target-version 5.9.1 (29 Sep 2008)
%%abc-creator hum2abc beta
%%abcx-conversion-date 2019/03/15 08:35:44
%%humdrum-veritas 3507440880
%%humdrum-veritas-data 2391981417
%%linebreak <none>
%%barnumbers 0
L: 1/4
M: 2/4
K: E clef=bass
[K:clef=bass][M:2/4]FG ||  
[M:3/4]F-F3/G//F// ||  
[M:2/4]EC ||  
[M:3/4]B,2z ||  
[M:2/4]E7//F// | 
EC | 
B,C | 
B,2- | 
B,z | 
B,G, | 
F,E, | 
F,E, | 
E,2- | 
E,/ z/B, | 
E7//F// | 
EC | 
B,C | 
B,2- | 
B,/ z/E ||  
[M:3/4]F3/G/F ||  
[M:2/4]EC | 
B,C ||  
[M:3/4]B,2z ||  
[M:2/4]B,G, | 
F,E, | 
F,E, | 
E,2 | 
E,2 |]  



